X: 4996
T: Brendan's
R: reel
M: 4/4
K: Edorian
|:GE E2 dBBA|B2 ED EFGA|BE E2 d3e|dA A2 FA A2|
GE E2 dBBA|B2 ED EFGA|B2dB AFDF|FEED E3F:|
|:E2 GB eB B2|gB B2 eB B2|D2FA dfec|dBAF GEED|
E2GB eB B2|g3B eB B2|D2FA dBAF|GEED E2 EF:|

